src/16/actions/view-time-schedule-edit.svg

<svg xmlns="http://www.w3.org/2000/svg" viewBox="0 0 16 16">
  <defs id="defs3051">
    <style type="text/css" id="current-color-scheme">
      .ColorScheme-Text {
        color:#5d656b;
      }
      </style>
  </defs>
    <path
       style="fill:currentColor;fill-opacity:1;stroke:none" 
       d="M 2 2 L 2 14 L 7 14 L 7 13 L 3 13 L 3 5 L 13 5 L 13 8 L 14 8 L 14 2 L 12 2 L 12 4 L 10 4 L 10 2 L 6 2 L 6 4 L 4 4 L 4 2 L 2 2 z M 4 6 L 4 9 L 5 9 L 5 8 L 8 8 L 8 9 L 9 9 L 9 6 L 8 6 L 8 7 L 5 7 L 5 6 L 4 6 z M 12 8 L 11 9 L 10 10 L 8 12 L 8 13 L 8 14 L 10 14 L 10.59375 13.40625 L 11 13 L 12 12 L 13 11 L 14 10 L 12 8 z M 11.689453 9.6894531 L 12.28125 10.28125 L 12 10.5625 L 10.59375 11.96875 L 10.59375 11.984375 L 9.3125 13.28125 L 8.71875 12.6875 L 11.689453 9.6894531 z "
        class="ColorScheme-Text"
       id="rect4449" />
</svg>

<svg xmlns="http://www.w3.org/2000/svg" viewBox="0 0 16 16"><path d="M2 2v12h5v-1H3V5h10v3h1V2h-2v2h-2V2H6v2H4V2H2zm2 4v3h1V8h3v1h1V6H8v1H5V6H4zm8 2l-1 1-1 1-2 2v2h2l.594-.594L11 13l1-1 1-1 1-1-2-2zm-.31 1.69l.591.591-.281.281-1.406 1.407v.015l-1.281 1.297-.594-.594 2.97-2.998z" fill="currentColor" color="#5d656b"/></svg>
